assets/images/svg/svg-arrow-down.svg

<svg class="svg-arrow-down" width="36" height="36" viewBox="0 0 36 36" fill="none" xmlns="http://www.w3.org/2000/svg">
<path d="M18 30L17.2929 30.7071L18 31.4142L18.7071 30.7071L18 30ZM19 7.5C19 6.94771 18.5523 6.5 18 6.5C17.4477 6.5 17 6.94771 17 7.5L19 7.5ZM8.29289 21.7071L17.2929 30.7071L18.7071 29.2929L9.70711 20.2929L8.29289 21.7071ZM18.7071 30.7071L27.7071 21.7071L26.2929 20.2929L17.2929 29.2929L18.7071 30.7071ZM19 30L19 7.5L17 7.5L17 30L19 30Z" fill="white"/>
</svg>

<svg class="svg-arrow-down" width="36" height="36" fill="none" xmlns="http://www.w3.org/2000/svg">
  <path d="m18 30-.707.707.707.707.707-.707L18 30Zm1-22.5a1 1 0 1 0-2 0h2ZM8.293 21.707l9 9 1.414-1.414-9-9-1.414 1.414Zm10.414 9 9-9-1.414-1.414-9 9 1.414 1.414ZM19 30V7.5h-2V30h2Z" fill="#fff"/>
</svg>
